packages/nimble-tokens/assets-icons/AssetManager_40x40.svg

<?xml version="1.0" encoding="iso-8859-1"?>
<!-- Generator: Adobe Illustrator 22.1.0, SVG Export Plug-In . SVG Version: 6.00 Build 0)  -->
<svg version="1.1" id="Layer_1" xmlns="http://www.w3.org/2000/svg" xmlns:xlink="http://www.w3.org/1999/xlink" x="0px" y="0px"
	 viewBox="0 0 40 40" style="enable-background:new 0 0 40 40;" xml:space="preserve">
<path style="opacity:0.7;" d="M36,26.5v-6v-2H21v-6h4v-10H15v10h4v6H4v2v6H0v10h10v-10H6v-6h13v6h-4v10h10v-10h-4v-6h13v6h-4v10h10
	v-10H36z M17,10.5v-6h6v6H17z"/>
</svg>

<svg id="Layer_1" data-name="Layer 1" xmlns="http://www.w3.org/2000/svg" viewBox="0 0 40 40"><path d="M36,26.5v-8H21v-6h4V2.5H15v10h4v6H4v8H0v10H10v-10H6v-6H19v6H15v10H25v-10H21v-6H34v6H30v10H40v-10Zm-19-16v-6h6v6Z" opacity="0.7"/></svg>
